X:1
T:Qui tuba sanguineos
T:Daniel Friderici
T:Source : Bicinia sacra---Rostock---J.Richelius---1642. Editor : André Vierendeels (02/07/17).
T:Notes : Original clefs : G2,G2 Note values have been halved in 3-beat measures Editorial accidentals above tha staff
T:Qui tuba sanguineos
T:©
T:©
C:Daniel Friderici
Z:©
%%score [ 1 2 ]
L:1/8
Q:1/4=120
M:3/2
K:F
V:1 treble nm="Soprano 1" snm="S 1"
V:2 treble nm="Soprano 2" snm="S 2"
V:1
 c4 f4 c4 | z12 | g4 e4 c4 | e4 g4 e4 | g4 e4 c4 | e4 g4 e4 |[M:2/2] z4 d4 | f6 f2 | e4 e4 | %9
w: Qui tu- ba,||qui tu- ba,|qui tu- ba,|qui tu- ba,|qui tu- ba|san-|gui- ne-|os, te|
 f2 e2 d2 c2 | B2 A2 G4 | F2 f2 e3 e | f2 F2 c3 c | F2 f2 e3 e | f4 c4- | c2 d2 e2 f2 | %16
w: con- * * *||tra ex- ci- ve-|rat, ex- ci- ve-|rat, ex- ci- ve-|rat ho-||
 g2 e2 f2 g2 | a2 g2 f2 e2 | d2 c2 d4 | c8 :: d3 d c2 c2 | B4 A4 | d3 d c2 c2 | B4 A2 F2 | %24
w: |||stes:|Buc- ci- na fit|ver- bi,|buc- ci- na fit|ver- bi, fit|
 GABc d2 e2 | f3 f e2 e2 | d4 c4 | f3 f e2 e2 | d4 c2 A2 | B4 A2 d2- | dd c2 B2 A2 | G8 | F8 :| %33
w: ver- * * * * bi,|buc- ci- na fit|ver- bi,|buc- ci- na fit|ver- bi, fit|ver- bi, ma-|* xi- me Chri- ste|tu-|i.|
V:2
 z12 | c4 f4 c4 | z12 | g4 e4 c4 | e4 g4 e4 | g4 e4 c4 |[M:2/2] z4 f4 | d6 d2 | ^c4 c4 | %9
w: |Qui tu- ba,||qui tu- ba,|qui tu- ba|qui tu- ba|san-|gui- ne-|os, te|
 d2 e2 f2 e2 | d2 c2 B4 | A2 F2 c3 c | F2 f2 e3 e | f2 F2 c3 c | F4 F2 G2 | A2 B2 c2 A2 | %16
w: con- * * *||tra ex- ci- ve-|rat, ex- ci- ve-|rat, ex- ci- ve-|rat ho- *||
 B2 c2 d2 e2 | f2 e2 d2 c2 | =B2 c4 B2 | c8 :: z8 | d3 d c2 c2 | B4 A4 | d3 d c2 c2 | B6 AG | %25
w: |||stes:||Buc- ci- na fit|ver- bi,|buc- ci- na fit|ver- * *|
 FGAB c2 c2 | f3 f e2 e2 | d4 c4 | f3 f e2 e2 | d4 c2 B2- | BB A2 G2 F2 | F2 ED E4 | F8 :| %33
w: * * * * * bi,|buc- ci- na fit|ver- bi,|buc- ci- na fit|ver- bi, ma-|* xi- me Chri- ste|tu- * * *|i.|

